; generated by PrusaSlicer 2.5.0+win64 on 2022-12-05 at 13:43:57 UTC


;
;
; 

; external perimeters extrusion width = 0.60mm
; perimeters extrusion width = 0.50mm
; infill extrusion width = 0.50mm
; solid infill extrusion width = 0.50mm
; top infill extrusion width = 0.45mm
; first layer extrusion width = 0.42mm

M73 P0 R21
M73 Q0 S21
M201 X1000 Y1000 Z200 E5000 ; sets maximum accelerations, mm/sec^2
M203 X200 Y200 Z12 E120 ; sets maximum feedrates, mm / sec
M204 P1250 R1250 T1250 ; sets acceleration (P, T) and retract acceleration (R), mm/sec^2
M205 X8.00 Y8.00 Z0.40 E4.50 ; sets the jerk limits, mm/sec
M205 S0 T0 ; sets the minimum extruding and travel feed rate, mm/sec
M107
;TYPE:Custom
M862.3 P "MK3S" ; printer model check
M862.1 P0.4 ; nozzle diameter check
M115 U3.11.0 ; tell printer latest fw version
G90 ; use absolute coordinates
M83 ; extruder relative mode
M104 S215 ; set extruder temp
M140 S60 ; set bed temp
M190 S60 ; wait for bed temp
M109 S215 ; wait for extruder temp
G28 W ; home all without mesh bed level
G80 ; mesh bed leveling

G1 Z0.2 F720
G1 Y-3 F1000 ; go outside print area
G92 E0
G1 X60 E9 F1000 ; intro line
G1 X100 E12.5 F1000 ; intro line

G92 E0
M221 S95

; Don't change E values below. Excessive value can damage the printer.

M907 E538 ; set extruder motor current
G21 ; set units to millimeters
G90 ; use absolute coordinates
M83 ; use relative distances for extrusion
M900 K0.05 ; Filament gcode LA 1.5
M900 K30 ; Filament gcode LA 1.0
M107
;LAYER_CHANGE
;Z:0.2
;HEIGHT:0.2
;BEFORE_LAYER_CHANGE
G92 E0.0
;0.2


G1 E-.8 F2100
M73 P0 R20
G1 Z.4 F720
;AFTER_LAYER_CHANGE
;0.2
G1 X80.015 Y50.693 F10800
G1 Z.2 F720
G1 E.8 F2100
M204 S800
;TYPE:Skirt/Brim
;WIDTH:0.42
G1 F1200
G1 X81.06 Y49.817 E.04278
G1 X82 Y49.623 E.03008
G1 X168 Y49.623 E2.69647
G1 X169.307 Y50.015 E.04278
M73 Q0 S20
G1 X170.183 Y51.06 E.04278
G1 X170.377 Y52 E.03008
G1 X170.377 Y158 E3.32356
G1 X169.985 Y159.307 E.04278
M73 P1 R20
M73 Q1 S20
G1 X168.94 Y160.183 E.04278
G1 X168 Y160.377 E.03008
G1 X82 Y160.377 E2.69647
G1 X80.693 Y159.985 E.04278
G1 X79.817 Y158.94 E.04278
G1 X79.623 Y158 E.03008
G1 X79.623 Y52 E3.32356
G1 X79.997 Y50.75 E.0409
M204 S1000
; printing object SolarFrameResize.stl id:0 copy 0
;WIPE_START
M73 P2 R20
M73 Q2 S20
G1 F8640
G1 X81.06 Y49.817 E-.32671
G1 X82 Y49.623 E-.22155
G1 X82.917 Y49.623 E-.21174
;WIPE_END
G1 E-.04 F2100
G1 Z.6 F720
G1 X167.213 Y157.213 F10800
G1 Z.2 F720
G1 E.8 F2100
M204 S800
;TYPE:Perimeter
;WIDTH:0.419999
G1 F1200
G1 X82.787 Y157.213 E2.64711
G1 X82.787 Y52.787 E3.27419
G1 X167.213 Y52.787 E2.64711
G1 X167.213 Y157.153 E3.27231
M204 S1000
M73 P3 R20
M73 Q3 S20
G1 X167.59 Y157.59 F10800
M204 S800
;TYPE:External perimeter
G1 F1200
G1 X82.41 Y157.59 E2.67075
G1 X82.41 Y52.41 E3.29784
M73 P4 R20
M73 Q4 S20
G1 X167.59 Y52.41 E2.67075
G1 X167.59 Y157.53 E3.29596
M204 S1000
G1 X167.207 Y157.473 F10800
;WIPE_START
M73 P5 R19
M73 Q5 S20
G1 F8640
G1 X164.299 Y157.532 E-.76
;WIPE_END
G1 E-.04 F2100
G1 Z.6 F720
G1 X87.237 Y152.308 F10800
G1 Z.2 F720
G1 E.8 F2100
M204 S800
;TYPE:Perimeter
G1 F1200
G1 X87.213 Y152.221 E.00282
G1 X87.213 Y57.779 E2.96119
G1 X87.293 Y57.488 E.00944
M73 Q5 S19
G1 X87.488 Y57.293 E.00866
G1 X87.779 Y57.213 E.00944
G1 X162.221 Y57.213 E2.3341
G1 X162.512 Y57.293 E.00944
M73 Q6 S19
G1 X162.707 Y57.488 E.00866
G1 X162.787 Y57.779 E.00944
G1 X162.787 Y152.221 E2.96119
G1 X162.707 Y152.512 E.00944
M73 P6 R19
G1 X162.512 Y152.707 E.00866
G1 X162.319 Y152.779 E.00644
G1 X162.221 Y152.787 E.00308
G1 X87.779 Y152.787 E2.3341
G1 X87.488 Y152.707 E.00944
G1 X87.293 Y152.512 E.00866
G1 X87.253 Y152.366 E.00474
M204 S1000
G1 X87.59 Y152.221 F10800
M204 S800
;TYPE:External perimeter
G1 F1200
G1 X87.59 Y57.779 E2.96119
G1 X87.645 Y57.645 E.00452
M73 P7 R19
M73 Q7 S19
G1 X87.779 Y57.59 E.00452
G1 X162.221 Y57.59 E2.3341
G1 X162.355 Y57.645 E.00452
G1 X162.41 Y57.779 E.00452
G1 X162.41 Y152.221 E2.96119
G1 X162.355 Y152.355 E.00452
G1 X162.221 Y152.41 E.00452
G1 X87.779 Y152.41 E2.3341
G1 X87.645 Y152.355 E.00452
M73 Q8 S19
G1 X87.613 Y152.277 E.00264
M204 S1000
G1 X87.204 Y152.118 F10800
;WIPE_START
G1 F8640
G1 X87.612 Y148.985 E-.76
;WIPE_END
G1 E-.04 F2100
M73 P8 R19
G1 Z.6 F720
G1 X166.337 Y52.9 F10800
G1 Z.2 F720
G1 E.8 F2100
M204 S800
;TYPE:Solid infill
;WIDTH:0.42046
G1 F1200
G1 X166.93 Y53.494 E.02635
G1 X166.93 Y54.028 E.01676
G1 X165.972 Y53.07 E.04252
G1 X165.438 Y53.07 E.01676
G1 X166.93 Y54.562 E.06623
G1 X166.93 Y55.096 E.01676
G1 X164.904 Y53.07 E.08993
G1 X164.371 Y53.07 E.01676
G1 X166.93 Y55.629 E.11363
G1 X166.93 Y56.163 E.01676
G1 X163.837 Y53.07 E.13734
G1 X163.303 Y53.07 E.01676
G1 X166.93 Y56.697 E.16104
G1 X166.93 Y57.231 E.01676
G1 X162.769 Y53.07 E.18475
G1 X162.235 Y53.07 E.01676
G1 X166.93 Y57.765 E.20845
G1 X166.93 Y58.299 E.01676
G1 X161.701 Y53.07 E.23215
G1 X161.167 Y53.07 E.01676
G1 X166.93 Y58.833 E.25586
G1 X166.93 Y59.367 E.01676
G1 X160.633 Y53.07 E.27956
G1 X160.099 Y53.07 E.01676
G1 X166.93 Y59.901 E.30327
G1 X166.93 Y60.435 E.01676
G1 X159.565 Y53.07 E.32697
G1 X159.031 Y53.07 E.01676
G1 X166.93 Y60.969 E.35067
G1 X166.93 Y61.503 E.01676
G1 X158.497 Y53.07 E.37438
G1 X157.963 Y53.07 E.01676
G1 X161.824 Y56.93 E.17138
G1 X161.29 Y56.93 E.01676
G1 X157.43 Y53.07 E.17138
G1 X156.896 Y53.07 E.01676
G1 X160.756 Y56.93 E.17138
G1 X160.222 Y56.93 E.01676
G1 X156.362 Y53.07 E.17138
G1 X155.828 Y53.07 E.01676
G1 X159.688 Y56.93 E.17138
G1 X159.154 Y56.93 E.01676
G1 X155.294 Y53.07 E.17138
G1 X154.76 Y53.07 E.01676
G1 X158.62 Y56.93 E.17138
G1 X158.086 Y56.93 E.01676
G1 X154.226 Y53.07 E.17138
G1 X153.692 Y53.07 E.01676
G1 X157.552 Y56.93 E.17138
G1 X157.018 Y56.93 E.01676
G1 X153.158 Y53.07 E.17138
G1 X152.624 Y53.07 E.01676
G1 X156.485 Y56.93 E.17138
G1 X155.951 Y56.93 E.01676
G1 X152.09 Y53.07 E.17138
G1 X151.556 Y53.07 E.01676
G1 X155.417 Y56.93 E.17138
G1 X154.883 Y56.93 E.01676
G1 X151.023 Y53.07 E.17138
G1 X150.489 Y53.07 E.01676
G1 X154.349 Y56.93 E.17138
G1 X153.815 Y56.93 E.01676
G1 X149.955 Y53.07 E.17138
G1 X149.421 Y53.07 E.01676
G1 X153.281 Y56.93 E.17138
G1 X152.747 Y56.93 E.01676
G1 X148.887 Y53.07 E.17138
G1 X148.353 Y53.07 E.01676
M73 Q9 S19
G1 X152.213 Y56.93 E.17138
G1 X151.679 Y56.93 E.01676
M73 P9 R19
G1 X147.819 Y53.07 E.17138
G1 X147.285 Y53.07 E.01676
G1 X151.145 Y56.93 E.17138
G1 X150.611 Y56.93 E.01676
G1 X146.751 Y53.07 E.17138
G1 X146.217 Y53.07 E.01676
G1 X150.077 Y56.93 E.17138
G1 X149.544 Y56.93 E.01676
G1 X145.683 Y53.07 E.17138
G1 X145.149 Y53.07 E.01676
G1 X149.01 Y56.93 E.17138
G1 X148.476 Y56.93 E.01676
G1 X144.615 Y53.07 E.17138
G1 X144.082 Y53.07 E.01676
G1 X147.942 Y56.93 E.17138
G1 X147.408 Y56.93 E.01676
G1 X143.548 Y53.07 E.17138
G1 X143.014 Y53.07 E.01676
G1 X146.874 Y56.93 E.17138
G1 X146.34 Y56.93 E.01676
G1 X142.48 Y53.07 E.17138
G1 X141.946 Y53.07 E.01676
G1 X145.806 Y56.93 E.17138
G1 X145.272 Y56.93 E.01676
G1 X141.412 Y53.07 E.17138
G1 X140.878 Y53.07 E.01676
G1 X144.738 Y56.93 E.17138
G1 X144.204 Y56.93 E.01676
G1 X140.344 Y53.07 E.17138
G1 X139.81 Y53.07 E.01676
G1 X143.67 Y56.93 E.17138
G1 X143.136 Y56.93 E.01676
G1 X139.276 Y53.07 E.17138
G1 X138.742 Y53.07 E.01676
G1 X142.603 Y56.93 E.17138
G1 X142.069 Y56.93 E.01676
G1 X138.208 Y53.07 E.17138
G1 X137.674 Y53.07 E.01676
G1 X141.535 Y56.93 E.17138
G1 X141.001 Y56.93 E.01676
G1 X137.141 Y53.07 E.17138
G1 X136.607 Y53.07 E.01676
G1 X140.467 Y56.93 E.17138
G1 X139.933 Y56.93 E.01676
G1 X136.073 Y53.07 E.17138
G1 X135.539 Y53.07 E.01676
G1 X139.399 Y56.93 E.17138
G1 X138.865 Y56.93 E.01676
G1 X135.005 Y53.07 E.17138
G1 X134.471 Y53.07 E.01676
G1 X138.331 Y56.93 E.17138
G1 X137.797 Y56.93 E.01676
G1 X133.937 Y53.07 E.17138
G1 X133.403 Y53.07 E.01676
G1 X137.263 Y56.93 E.17138
G1 X136.729 Y56.93 E.01676
G1 X132.869 Y53.07 E.17138
G1 X132.335 Y53.07 E.01676
G1 X136.195 Y56.93 E.17138
G1 X135.662 Y56.93 E.01676
G1 X131.801 Y53.07 E.17138
G1 X131.267 Y53.07 E.01676
G1 X135.128 Y56.93 E.17138
G1 X134.594 Y56.93 E.01676
G1 X130.733 Y53.07 E.17138
G1 X130.2 Y53.07 E.01676
G1 X134.06 Y56.93 E.17138
G1 X133.526 Y56.93 E.01676
G1 X129.666 Y53.07 E.17138
G1 X129.132 Y53.07 E.01676
G1 X132.992 Y56.93 E.17138
G1 X132.458 Y56.93 E.01676
M73 P9 R18
G1 X128.598 Y53.07 E.17138
G1 X128.064 Y53.07 E.01676
G1 X131.924 Y56.93 E.17138
G1 X131.39 Y56.93 E.01676
G1 X127.53 Y53.07 E.17138
G1 X126.996 Y53.07 E.01676
G1 X130.856 Y56.93 E.17138
M73 Q10 S19
G1 X130.322 Y56.93 E.01676
G1 X126.462 Y53.07 E.17138
G1 X125.928 Y53.07 E.01676
M73 P10 R18
G1 X129.788 Y56.93 E.17138
G1 X129.254 Y56.93 E.01676
G1 X125.394 Y53.07 E.17138
G1 X124.86 Y53.07 E.01676
G1 X128.721 Y56.93 E.17138
G1 X128.187 Y56.93 E.01676
G1 X124.326 Y53.07 E.17138
G1 X123.792 Y53.07 E.01676
G1 X127.653 Y56.93 E.17138
G1 X127.119 Y56.93 E.01676
G1 X123.259 Y53.07 E.17138
G1 X122.725 Y53.07 E.01676
G1 X126.585 Y56.93 E.17138
G1 X126.051 Y56.93 E.01676
G1 X122.191 Y53.07 E.17138
G1 X121.657 Y53.07 E.01676
G1 X125.517 Y56.93 E.17138
G1 X124.983 Y56.93 E.01676
M73 Q10 S18
G1 X121.123 Y53.07 E.17138
G1 X120.589 Y53.07 E.01676
G1 X124.449 Y56.93 E.17138
G1 X123.915 Y56.93 E.01676
G1 X120.055 Y53.07 E.17138
G1 X119.521 Y53.07 E.01676
G1 X123.381 Y56.93 E.17138
G1 X122.847 Y56.93 E.01676
G1 X118.987 Y53.07 E.17138
G1 X118.453 Y53.07 E.01676
G1 X122.313 Y56.93 E.17138
G1 X121.78 Y56.93 E.01676
G1 X117.919 Y53.07 E.17138
G1 X117.385 Y53.07 E.01676
G1 X121.246 Y56.93 E.17138
G1 X120.712 Y56.93 E.01676
G1 X116.851 Y53.07 E.17138
G1 X116.318 Y53.07 E.01676
G1 X120.178 Y56.93 E.17138
G1 X119.644 Y56.93 E.01676
G1 X115.784 Y53.07 E.17138
G1 X115.25 Y53.07 E.01676
G1 X119.11 Y56.93 E.17138
G1 X118.576 Y56.93 E.01676
G1 X114.716 Y53.07 E.17138
G1 X114.182 Y53.07 E.01676
G1 X118.042 Y56.93 E.17138
G1 X117.508 Y56.93 E.01676
G1 X113.648 Y53.07 E.17138
G1 X113.114 Y53.07 E.01676
G1 X116.974 Y56.93 E.17138
G1 X116.44 Y56.93 E.01676
G1 X112.58 Y53.07 E.17138
G1 X112.046 Y53.07 E.01676
G1 X115.906 Y56.93 E.17138
G1 X115.373 Y56.93 E.01676
G1 X111.512 Y53.07 E.17138
G1 X110.978 Y53.07 E.01676
G1 X114.839 Y56.93 E.17138
G1 X114.305 Y56.93 E.01676
G1 X110.444 Y53.07 E.17138
G1 X109.91 Y53.07 E.01676
G1 X113.771 Y56.93 E.17138
G1 X113.237 Y56.93 E.01676
G1 X109.377 Y53.07 E.17138
G1 X108.843 Y53.07 E.01676
G1 X112.703 Y56.93 E.17138
G1 X112.169 Y56.93 E.01676
G1 X108.309 Y53.07 E.17138
G1 X107.775 Y53.07 E.01676
G1 X111.635 Y56.93 E.17138
G1 X111.101 Y56.93 E.01676
G1 X107.241 Y53.07 E.17138
G1 X106.707 Y53.07 E.01676
G1 X110.567 Y56.93 E.17138
G1 X110.033 Y56.93 E.01676
G1 X106.173 Y53.07 E.17138
G1 X105.639 Y53.07 E.01676
G1 X109.499 Y56.93 E.17138
G1 X108.965 Y56.93 E.01676
M73 Q11 S18
G1 X105.105 Y53.07 E.17138
G1 X104.571 Y53.07 E.01676
M73 P11 R18
G1 X108.432 Y56.93 E.17138
G1 X107.898 Y56.93 E.01676
G1 X104.037 Y53.07 E.17138
G1 X103.503 Y53.07 E.01676
G1 X107.364 Y56.93 E.17138
G1 X106.83 Y56.93 E.01676
G1 X102.97 Y53.07 E.17138
G1 X102.436 Y53.07 E.01676
G1 X106.296 Y56.93 E.17138
G1 X105.762 Y56.93 E.01676
G1 X101.902 Y53.07 E.17138
G1 X101.368 Y53.07 E.01676
G1 X105.228 Y56.93 E.17138
G1 X104.694 Y56.93 E.01676
G1 X100.834 Y53.07 E.17138
G1 X100.3 Y53.07 E.01676
G1 X104.16 Y56.93 E.17138
G1 X103.626 Y56.93 E.01676
G1 X99.766 Y53.07 E.17138
G1 X99.232 Y53.07 E.01676
G1 X103.092 Y56.93 E.17138
G1 X102.558 Y56.93 E.01676
G1 X98.698 Y53.07 E.17138
G1 X98.164 Y53.07 E.01676
G1 X102.024 Y56.93 E.17138
G1 X101.491 Y56.93 E.01676
G1 X97.63 Y53.07 E.17138
G1 X97.096 Y53.07 E.01676
G1 X100.957 Y56.93 E.17138
G1 X100.423 Y56.93 E.01676
G1 X96.562 Y53.07 E.17138
G1 X96.029 Y53.07 E.01676
G1 X99.889 Y56.93 E.17138
G1 X99.355 Y56.93 E.01676
G1 X95.495 Y53.07 E.17138
G1 X94.961 Y53.07 E.01676
G1 X98.821 Y56.93 E.17138
G1 X98.287 Y56.93 E.01676
G1 X94.427 Y53.07 E.17138
G1 X93.893 Y53.07 E.01676
G1 X97.753 Y56.93 E.17138
G1 X97.219 Y56.93 E.01676
G1 X93.359 Y53.07 E.17138
G1 X92.825 Y53.07 E.01676
G1 X96.685 Y56.93 E.17138
G1 X96.151 Y56.93 E.01676
G1 X92.291 Y53.07 E.17138
G1 X91.757 Y53.07 E.01676
G1 X95.617 Y56.93 E.17138
G1 X95.083 Y56.93 E.01676
G1 X91.223 Y53.07 E.17138
G1 X90.689 Y53.07 E.01676
G1 X94.55 Y56.93 E.17138
G1 X94.016 Y56.93 E.01676
G1 X90.155 Y53.07 E.17138
G1 X89.621 Y53.07 E.01676
G1 X93.482 Y56.93 E.17138
G1 X92.948 Y56.93 E.01676
G1 X89.088 Y53.07 E.17138
G1 X88.554 Y53.07 E.01676
G1 X92.414 Y56.93 E.17138
G1 X91.88 Y56.93 E.01676
G1 X88.02 Y53.07 E.17138
G1 X87.486 Y53.07 E.01676
G1 X91.346 Y56.93 E.17138
G1 X90.812 Y56.93 E.01676
G1 X86.952 Y53.07 E.17138
G1 X86.418 Y53.07 E.01676
G1 X90.278 Y56.93 E.17138
G1 X89.744 Y56.93 E.01676
G1 X85.884 Y53.07 E.17138
G1 X85.35 Y53.07 E.01676
G1 X89.21 Y56.93 E.17138
G1 X88.676 Y56.93 E.01676
G1 X84.816 Y53.07 E.17138
G1 X84.282 Y53.07 E.01676
G1 X88.142 Y56.93 E.17138
G1 X87.772 Y56.93 E.01163
G1 X87.628 Y56.95 E.00455
G1 X83.748 Y53.07 E.17226
M73 Q12 S18
G1 X83.214 Y53.07 E.01676
M73 P12 R18
G1 X87.259 Y57.115 E.17958
G1 X87.178 Y57.178 E.00323
G1 X87.049 Y57.343 E.00657
G1 X87.021 Y57.41 E.00229
G1 X83.07 Y53.459 E.1754
G1 X83.07 Y53.993 E.01676
G1 X86.93 Y57.853 E.17138
G1 X86.93 Y58.387 E.01676
G1 X83.07 Y54.527 E.17138
G1 X83.07 Y55.061 E.01676
G1 X86.93 Y58.921 E.17138
G1 X86.93 Y59.455 E.01676
G1 X83.07 Y55.595 E.17138
G1 X83.07 Y56.129 E.01676
G1 X86.93 Y59.989 E.17138
G1 X86.93 Y60.523 E.01676
G1 X83.07 Y56.663 E.17138
G1 X83.07 Y57.197 E.01676
G1 X86.93 Y61.057 E.17138
G1 X86.93 Y61.591 E.01676
G1 X83.07 Y57.731 E.17138
G1 X83.07 Y58.265 E.01676
G1 X86.93 Y62.125 E.17138
G1 X86.93 Y62.659 E.01676
G1 X83.07 Y58.799 E.17138
G1 X83.07 Y59.332 E.01676
G1 X86.93 Y63.193 E.17138
G1 X86.93 Y63.727 E.01676
G1 X83.07 Y59.866 E.17138
G1 X83.07 Y60.4 E.01676
G1 X86.93 Y64.261 E.17138
G1 X86.93 Y64.794 E.01676
G1 X83.07 Y60.934 E.17138
G1 X83.07 Y61.468 E.01676
G1 X86.93 Y65.328 E.17138
G1 X86.93 Y65.862 E.01676
G1 X83.07 Y62.002 E.17138
G1 X83.07 Y62.536 E.01676
G1 X86.93 Y66.396 E.17138
G1 X86.93 Y66.93 E.01676
G1 X83.07 Y63.07 E.17138
G1 X83.07 Y63.604 E.01676
G1 X86.93 Y67.464 E.17138
G1 X86.93 Y67.998 E.01676
G1 X83.07 Y64.138 E.17138
G1 X83.07 Y64.672 E.01676
G1 X86.93 Y68.532 E.17138
G1 X86.93 Y69.066 E.01676
G1 X83.07 Y65.206 E.17138
G1 X83.07 Y65.739 E.01676
G1 X86.93 Y69.6 E.17138
G1 X86.93 Y70.134 E.01676
G1 X83.07 Y66.273 E.17138
G1 X83.07 Y66.807 E.01676
G1 X86.93 Y70.668 E.17138
G1 X86.93 Y71.202 E.01676
G1 X83.07 Y67.341 E.17138
G1 X83.07 Y67.875 E.01676
G1 X86.93 Y71.735 E.17138
G1 X86.93 Y72.269 E.01676
G1 X83.07 Y68.409 E.17138
G1 X83.07 Y68.943 E.01676
G1 X86.93 Y72.803 E.17138
G1 X86.93 Y73.337 E.01676
G1 X83.07 Y69.477 E.17138
G1 X83.07 Y70.011 E.01676
G1 X86.93 Y73.871 E.17138
G1 X86.93 Y74.405 E.01676
G1 X83.07 Y70.545 E.17138
G1 X83.07 Y71.079 E.01676
G1 X86.93 Y74.939 E.17138
G1 X86.93 Y75.473 E.01676
G1 X83.07 Y71.613 E.17138
G1 X83.07 Y72.147 E.01676
G1 X86.93 Y76.007 E.17138
G1 X86.93 Y76.541 E.01676
G1 X83.07 Y72.68 E.17138
G1 X83.07 Y73.214 E.01676
G1 X86.93 Y77.075 E.17138
G1 X86.93 Y77.609 E.01676
G1 X83.07 Y73.748 E.17138
G1 X83.07 Y74.282 E.01676
M73 Q13 S18
G1 X86.93 Y78.142 E.17138
G1 X86.93 Y78.676 E.01676
M73 P13 R18
G1 X83.07 Y74.816 E.17138
G1 X83.07 Y75.35 E.01676
G1 X86.93 Y79.21 E.17138
G1 X86.93 Y79.744 E.01676
G1 X83.07 Y75.884 E.17138
G1 X83.07 Y76.418 E.01676
G1 X86.93 Y80.278 E.17138
G1 X86.93 Y80.812 E.01676
G1 X83.07 Y76.952 E.17138
G1 X83.07 Y77.486 E.01676
G1 X86.93 Y81.346 E.17138
G1 X86.93 Y81.88 E.01676
G1 X83.07 Y78.02 E.17138
G1 X83.07 Y78.554 E.01676
G1 X86.93 Y82.414 E.17138
G1 X86.93 Y82.948 E.01676
G1 X83.07 Y79.088 E.17138
G1 X83.07 Y79.621 E.01676
G1 X86.93 Y83.482 E.17138
G1 X86.93 Y84.016 E.01676
G1 X83.07 Y80.155 E.17138
G1 X83.07 Y80.689 E.01676
G1 X86.93 Y84.55 E.17138
G1 X86.93 Y85.083 E.01676
G1 X83.07 Y81.223 E.17138
G1 X83.07 Y81.757 E.01676
G1 X86.93 Y85.617 E.17138
G1 X86.93 Y86.151 E.01676
G1 X83.07 Y82.291 E.17138
G1 X83.07 Y82.825 E.01676
G1 X86.93 Y86.685 E.17138
G1 X86.93 Y87.219 E.01676
G1 X83.07 Y83.359 E.17138
G1 X83.07 Y83.893 E.01676
G1 X86.93 Y87.753 E.17138
G1 X86.93 Y88.287 E.01676
G1 X83.07 Y84.427 E.17138
G1 X83.07 Y84.961 E.01676
G1 X86.93 Y88.821 E.17138
