; generated by PrusaSlicer 2.5.0+win64 on 2022-12-05 at 15:08:39 UTC


;
;
; 

; external perimeters extrusion width = 0.60mm
; perimeters extrusion width = 0.50mm
; infill extrusion width = 0.50mm
; solid infill extrusion width = 0.50mm
; top infill extrusion width = 0.45mm
; first layer extrusion width = 0.42mm

M73 P0 R35
M73 Q0 S35
M201 X1000 Y1000 Z200 E5000 ; sets maximum accelerations, mm/sec^2
M203 X200 Y200 Z12 E120 ; sets maximum feedrates, mm / sec
M204 P1250 R1250 T1250 ; sets acceleration (P, T) and retract acceleration (R), mm/sec^2
M205 X8.00 Y8.00 Z0.40 E4.50 ; sets the jerk limits, mm/sec
M205 S0 T0 ; sets the minimum extruding and travel feed rate, mm/sec
M107
;TYPE:Custom
M862.3 P "MK3S" ; printer model check
M862.1 P0.4 ; nozzle diameter check
M115 U3.11.0 ; tell printer latest fw version
G90 ; use absolute coordinates
M83 ; extruder relative mode
M104 S215 ; set extruder temp
M140 S60 ; set bed temp
M190 S60 ; wait for bed temp
M109 S215 ; wait for extruder temp
G28 W ; home all without mesh bed level
G80 ; mesh bed leveling

G1 Z0.2 F720
G1 Y-3 F1000 ; go outside print area
G92 E0
G1 X60 E9 F1000 ; intro line
G1 X100 E12.5 F1000 ; intro line

G92 E0
M221 S95

; Don't change E values below. Excessive value can damage the printer.

M907 E538 ; set extruder motor current
G21 ; set units to millimeters
G90 ; use absolute coordinates
M83 ; use relative distances for extrusion
M900 K0.05 ; Filament gcode LA 1.5
M900 K30 ; Filament gcode LA 1.0
M107
;LAYER_CHANGE
;Z:0.2
;HEIGHT:0.2
;BEFORE_LAYER_CHANGE
G92 E0.0
;0.2


G1 E-.8 F2100
G1 Z.4 F720
;AFTER_LAYER_CHANGE
;0.2
G1 X82.015 Y52.693 F10800
G1 Z.2 F720
G1 E.8 F2100
M204 S800
;TYPE:Skirt/Brim
;WIDTH:0.42
G1 F1200
G1 X83.06 Y51.817 E.04278
G1 X84 Y51.623 E.03008
G1 X166 Y51.623 E2.57105
G1 X167.307 Y52.015 E.04278
G1 X168.183 Y53.06 E.04278
G1 X168.377 Y54 E.03008
G1 X168.377 Y156 E3.19814
G1 X167.985 Y157.307 E.04278
G1 X166.94 Y158.183 E.04278
G1 X166 Y158.377 E.03008
G1 X84 Y158.377 E2.57105
G1 X82.693 Y157.985 E.04278
G1 X81.817 Y156.94 E.04278
G1 X81.623 Y156 E.03008
G1 X81.623 Y54 E3.19814
G1 X81.997 Y52.75 E.0409
M204 S1000
; printing object SolarBackingResize.stl id:0 copy 0
;WIPE_START
M73 P1 R35
M73 Q1 S35
G1 F8640
G1 X83.06 Y51.817 E-.32671
G1 X84 Y51.623 E-.22155
G1 X84.917 Y51.623 E-.21174
;WIPE_END
G1 E-.04 F2100
G1 Z.6 F720
G1 X165.213 Y155.213 F10800
G1 Z.2 F720
G1 E.8 F2100
M204 S800
;TYPE:Perimeter
;WIDTH:0.419999
G1 F1200
G1 X84.787 Y155.213 E2.52169
G1 X84.787 Y54.787 E3.14878
M73 P1 R34
G1 X165.213 Y54.787 E2.52169
M73 Q1 S34
G1 X165.213 Y155.153 E3.1469
M204 S1000
G1 X165.59 Y155.59 F10800
M204 S800
;TYPE:External perimeter
M73 P2 R34
M73 Q2 S34
G1 F1200
G1 X84.41 Y155.59 E2.54534
G1 X84.41 Y54.41 E3.17242
G1 X165.59 Y54.41 E2.54534
G1 X165.59 Y155.53 E3.17054
M204 S1000
G1 X165.208 Y155.472 F10800
;WIPE_START
M73 Q3 S34
G1 F8640
G1 X162.299 Y155.532 E-.76
;WIPE_END
G1 E-.04 F2100
G1 Z.6 F720
G1 X111.29 Y116.253 F10800
M73 P3 R34
G1 Z.2 F720
G1 E.8 F2100
M204 S800
;TYPE:Perimeter
G1 F1200
G1 X110.857 Y115.487 E.02759
G1 X110.462 Y114.676 E.02827
G1 X110.116 Y113.844 E.02828
G1 X109.82 Y112.992 E.02828
G1 X109.577 Y112.123 E.02828
G1 X109.387 Y111.242 E.02828
G1 X109.25 Y110.35 E.02828
G1 X109.168 Y109.452 E.02827
G1 X109.139 Y108.551 E.02828
G1 X109.166 Y107.649 E.02828
G1 X109.246 Y106.751 E.02828
G1 X109.381 Y105.86 E.02827
G1 X109.569 Y104.978 E.02828
G1 X109.81 Y104.109 E.02828
G1 X110.103 Y103.256 E.02828
G1 X110.448 Y102.422 E.02828
G1 X110.841 Y101.611 E.02827
G1 X111.284 Y100.825 E.02828
G1 X111.772 Y100.067 E.02828
G1 X112.306 Y99.34 E.02827
G1 X112.882 Y98.647 E.02828
G1 X113.5 Y97.989 E.02828
G1 X114.156 Y97.371 E.02828
G1 X114.848 Y96.792 E.02828
G1 X115.574 Y96.257 E.02828
G1 X116.33 Y95.767 E.02827
G1 X117.101 Y95.331 E.02777
G1 X117.926 Y94.927 E.02878
G1 X118.758 Y94.581 E.02827
G1 X119.611 Y94.286 E.02828
G1 X120.479 Y94.043 E.02827
G1 X121.361 Y93.852 E.02828
G1 X122.252 Y93.716 E.02827
G1 X123.15 Y93.633 E.02828
G1 X123.977 Y93.607 E.02594
G1 X124.95 Y93.631 E.03052
G1 X125.851 Y93.712 E.02836
G1 X126.743 Y93.846 E.02828
G1 X127.625 Y94.034 E.02828
G1 X128.493 Y94.276 E.02827
G1 X129.346 Y94.569 E.02828
G1 X130.18 Y94.913 E.02828
G1 X130.991 Y95.307 E.02827
G1 X131.777 Y95.749 E.02828
G1 X132.535 Y96.238 E.02828
G1 X133.262 Y96.771 E.02828
G1 X133.955 Y97.348 E.02828
G1 X134.613 Y97.965 E.02828
G1 X135.232 Y98.621 E.02828
G1 X135.762 Y99.256 E.02594
G1 X136.343 Y100.037 E.03052
G1 X136.836 Y100.796 E.02836
G1 X137.279 Y101.581 E.02828
G1 X137.675 Y102.391 E.02827
G1 X138.021 Y103.224 E.02828
G1 X138.316 Y104.076 E.02828
G1 X138.56 Y104.944 E.02828
G1 X138.75 Y105.826 E.02828
G1 X138.887 Y106.717 E.02828
G1 X138.969 Y107.615 E.02827
G1 X138.997 Y108.517 E.02828
G1 X138.971 Y109.418 E.02828
G1 X138.891 Y110.316 E.02828
G1 X138.756 Y111.208 E.02827
G1 X138.568 Y112.09 E.02828
G1 X138.327 Y112.959 E.02828
G1 X138.033 Y113.812 E.02828
G1 X137.689 Y114.645 E.02828
G1 X137.295 Y115.457 E.02827
G1 X136.853 Y116.243 E.02828
G1 X136.364 Y117 E.02828
G1 X135.831 Y117.727 E.02827
G1 X135.254 Y118.421 E.02828
G1 X134.637 Y119.078 E.02828
G1 X133.981 Y119.697 E.02828
G1 X133.289 Y120.275 E.02828
G1 X132.563 Y120.81 E.02828
G1 X131.806 Y121.301 E.02827
G1 X131.021 Y121.745 E.02828
G1 X130.211 Y122.141 E.02827
G1 X129.378 Y122.487 E.02828
G1 X128.526 Y122.782 E.02828
G1 X127.658 Y123.025 E.02827
G1 X126.776 Y123.215 E.02828
G1 X125.885 Y123.352 E.02827
G1 X124.987 Y123.435 E.02828
G1 X124.085 Y123.463 E.02828
G1 X123.184 Y123.437 E.02828
G1 X122.286 Y123.356 E.02828
G1 X121.394 Y123.221 E.02828
G1 X120.512 Y123.033 E.02828
G1 X119.643 Y122.792 E.02827
G1 X118.79 Y122.499 E.02828
G1 X117.957 Y122.155 E.02828
G1 X117.213 Y121.793 E.02594
G1 X116.362 Y121.32 E.03052
G1 X115.602 Y120.83 E.02836
G1 X114.875 Y120.296 E.02828
G1 X114.181 Y119.72 E.02828
G1 X113.524 Y119.102 E.02828
G1 X112.905 Y118.446 E.02828
G1 X112.327 Y117.754 E.02828
G1 X111.792 Y117.029 E.02827
G1 X111.322 Y116.304 E.02708
M204 S1000
G1 X111.618 Y116.067 F10800
M204 S800
;TYPE:External perimeter
G1 F1200
G1 X111.186 Y115.302 E.02756
G1 X110.801 Y114.511 E.02756
G1 X110.464 Y113.699 E.02756
G1 X110.177 Y112.869 E.02756
G1 X109.94 Y112.022 E.02756
G1 X109.756 Y111.163 E.02756
G1 X109.623 Y110.294 E.02756
G1 X109.543 Y109.418 E.02756
G1 X109.516 Y108.54 E.02756
G1 X109.542 Y107.661 E.02756
G1 X109.622 Y106.785 E.02756
G1 X109.754 Y105.916 E.02756
G1 X109.938 Y105.057 E.02756
G1 X110.173 Y104.21 E.02756
G1 X110.46 Y103.379 E.02756
G1 X110.796 Y102.567 E.02756
G1 X111.18 Y101.776 E.02756
G1 X111.612 Y101.01 E.02756
G1 X112.089 Y100.272 E.02756
G1 X112.61 Y99.564 E.02756
G1 X113.172 Y98.888 E.02756
G1 X113.774 Y98.248 E.02756
G1 X114.414 Y97.645 E.02756
G1 X115.089 Y97.082 E.02756
G1 X115.797 Y96.561 E.02756
G1 X116.535 Y96.083 E.02756
G1 X117.287 Y95.659 E.02706
G1 X118.091 Y95.266 E.02806
G1 X118.903 Y94.929 E.02756
G1 X119.734 Y94.642 E.02756
G1 X120.58 Y94.406 E.02756
G1 X121.44 Y94.221 E.02756
G1 X122.309 Y94.088 E.02756
G1 X123.184 Y94.009 E.02756
G1 X123.988 Y93.984 E.02523
G1 X124.94 Y94.008 E.02986
G1 X125.817 Y94.087 E.02759
G1 X126.686 Y94.219 E.02756
G1 X127.545 Y94.403 E.02756
G1 X128.392 Y94.639 E.02756
G1 X129.223 Y94.925 E.02756
G1 X130.036 Y95.261 E.02756
G1 X130.826 Y95.646 E.02756
G1 X131.592 Y96.077 E.02756
G1 X132.33 Y96.554 E.02756
G1 X133.038 Y97.075 E.02756
G1 X133.714 Y97.638 E.02756
G1 X134.354 Y98.24 E.02756
G1 X134.957 Y98.88 E.02756
G1 X135.472 Y99.498 E.02523
G1 X136.041 Y100.262 E.02986
G1 X136.519 Y101.001 E.02759
G1 X136.951 Y101.766 E.02756
G1 X137.336 Y102.556 E.02756
G1 X137.673 Y103.368 E.02756
G1 X137.96 Y104.199 E.02756
G1 X138.196 Y105.046 E.02756
G1 X138.381 Y105.905 E.02756
G1 X138.514 Y106.774 E.02756
G1 X138.594 Y107.649 E.02756
G1 X138.621 Y108.528 E.02756
G1 X138.594 Y109.407 E.02756
G1 X138.515 Y110.282 E.02756
G1 X138.383 Y111.151 E.02756
G1 X138.199 Y112.011 E.02756
G1 X137.963 Y112.858 E.02756
G1 X137.677 Y113.689 E.02756
G1 X137.341 Y114.501 E.02756
G1 X136.956 Y115.291 E.02756
G1 X136.525 Y116.057 E.02756
G1 X136.048 Y116.796 E.02756
G1 X135.527 Y117.504 E.02756
G1 X134.965 Y118.179 E.02756
G1 X134.362 Y118.82 E.02756
G1 X133.723 Y119.422 E.02756
G1 X133.047 Y119.986 E.02756
G1 X132.34 Y120.507 E.02756
G1 X131.602 Y120.984 E.02756
G1 X130.836 Y121.416 E.02756
G1 X130.046 Y121.802 E.02756
G1 X129.234 Y122.138 E.02756
G1 X128.403 Y122.425 E.02756
G1 X127.556 Y122.662 E.02756
G1 X126.697 Y122.847 E.02756
G1 X125.828 Y122.979 E.02756
G1 X124.953 Y123.059 E.02756
G1 X124.074 Y123.086 E.02756
G1 X123.195 Y123.06 E.02756
G1 X122.32 Y122.981 E.02756
G1 X121.451 Y122.849 E.02756
G1 X120.591 Y122.664 E.02756
G1 X119.745 Y122.429 E.02756
G1 X118.913 Y122.142 E.02756
G1 X118.101 Y121.806 E.02756
G1 X117.378 Y121.454 E.02523
G1 X116.546 Y120.991 E.02986
G1 X115.807 Y120.513 E.02759
G1 X115.098 Y119.993 E.02756
G1 X114.423 Y119.43 E.02756
G1 X113.782 Y118.828 E.02756
G1 X113.18 Y118.188 E.02756
G1 X112.617 Y117.513 E.02756
G1 X112.095 Y116.805 E.02756
G1 X111.65 Y116.117 E.02568
M204 S1000
G1 X111.218 Y116.075 F10800
;WIPE_START
G1 F8640
G1 X111.186 Y115.302 E-.2168
G1 X110.801 Y114.511 E-.20297
G1 X110.464 Y113.699 E-.20297
G1 X110.27 Y113.138 E-.13726
;WIPE_END
G1 E-.04 F2100
G1 Z.6 F720
G1 X165.1 Y55.663 F10800
G1 Z.2 F720
G1 E.8 F2100
M204 S800
;TYPE:Solid infill
;WIDTH:0.420478
G1 F1200
G1 X164.506 Y55.07 E.02635
G1 X163.972 Y55.07 E.01676
G1 X164.93 Y56.028 E.04253
G1 X164.93 Y56.562 E.01676
G1 X163.438 Y55.07 E.06623
G1 X162.904 Y55.07 E.01676
G1 X164.93 Y57.096 E.08994
G1 X164.93 Y57.63 E.01676
G1 X162.37 Y55.07 E.11365
G1 X161.836 Y55.07 E.01676
G1 X164.93 Y58.164 E.13735
G1 X164.93 Y58.697 E.01676
G1 X161.303 Y55.07 E.16106
G1 X160.769 Y55.07 E.01676
G1 X164.93 Y59.231 E.18476
G1 X164.93 Y59.765 E.01676
G1 X160.235 Y55.07 E.20847
G1 X159.701 Y55.07 E.01676
G1 X164.93 Y60.299 E.23218
G1 X164.93 Y60.833 E.01676
G1 X159.167 Y55.07 E.25588
G1 X158.633 Y55.07 E.01676
G1 X164.93 Y61.367 E.27959
G1 X164.93 Y61.901 E.01676
G1 X158.099 Y55.07 E.30329
G1 X157.565 Y55.07 E.01676
G1 X164.93 Y62.435 E.327
G1 X164.93 Y62.969 E.01676
G1 X157.031 Y55.07 E.35071
G1 X156.497 Y55.07 E.01676
G1 X164.93 Y63.503 E.37441
G1 X164.93 Y64.037 E.01676
G1 X155.963 Y55.07 E.39812
G1 X155.429 Y55.07 E.01676
G1 X164.93 Y64.571 E.42183
G1 X164.93 Y65.105 E.01676
G1 X154.895 Y55.07 E.44553
G1 X154.361 Y55.07 E.01676
G1 X164.93 Y65.639 E.46924
G1 X164.93 Y66.173 E.01676
G1 X153.827 Y55.07 E.49294
G1 X153.293 Y55.07 E.01676
G1 X164.93 Y66.707 E.51665
G1 X164.93 Y67.241 E.01676
M73 Q4 S34
G1 X152.759 Y55.07 E.54036
G1 X152.225 Y55.07 E.01676
M73 P4 R34
G1 X164.93 Y67.775 E.56406
G1 X164.93 Y68.309 E.01676
G1 X151.691 Y55.07 E.58777
G1 X151.158 Y55.07 E.01676
G1 X164.93 Y68.842 E.61148
G1 X164.93 Y69.376 E.01676
M73 P4 R33
G1 X150.624 Y55.07 E.63518
G1 X150.09 Y55.07 E.01676
G1 X164.93 Y69.91 E.65889
G1 X164.93 Y70.444 E.01676
G1 X149.556 Y55.07 E.68259
G1 X149.022 Y55.07 E.01676
M73 Q4 S33
G1 X164.93 Y70.978 E.7063
G1 X164.93 Y71.512 E.01676
G1 X148.488 Y55.07 E.73001
G1 X147.954 Y55.07 E.01676
G1 X164.93 Y72.046 E.75371
G1 X164.93 Y72.58 E.01676
G1 X147.42 Y55.07 E.77742
G1 X146.886 Y55.07 E.01676
G1 X164.93 Y73.114 E.80112
G1 X164.93 Y73.648 E.01676
G1 X146.352 Y55.07 E.82483
G1 X145.818 Y55.07 E.01676
G1 X164.93 Y74.182 E.84854
G1 X164.93 Y74.716 E.01676
G1 X145.284 Y55.07 E.87224
G1 X144.75 Y55.07 E.01676
G1 X164.93 Y75.25 E.89595
G1 X164.93 Y75.784 E.01676
G1 X144.216 Y55.07 E.91966
G1 X143.682 Y55.07 E.01676
G1 X164.93 Y76.318 E.94336
G1 X164.93 Y76.852 E.01676
M73 P5 R33
M73 Q5 S33
G1 X143.148 Y55.07 E.96707
G1 X142.614 Y55.07 E.01676
G1 X164.93 Y77.386 E.99077
G1 X164.93 Y77.92 E.01676
G1 X142.08 Y55.07 E1.01448
G1 X141.546 Y55.07 E.01676
G1 X164.93 Y78.454 E1.03819
G1 X164.93 Y78.987 E.01676
G1 X141.013 Y55.07 E1.06189
G1 X140.479 Y55.07 E.01676
G1 X164.93 Y79.521 E1.0856
G1 X164.93 Y80.055 E.01676
G1 X139.945 Y55.07 E1.1093
G1 X139.411 Y55.07 E.01676
G1 X164.93 Y80.589 E1.13301
G1 X164.93 Y81.123 E.01676
G1 X138.877 Y55.07 E1.15672
G1 X138.343 Y55.07 E.01676
G1 X164.93 Y81.657 E1.18042
G1 X164.93 Y82.191 E.01676
G1 X137.809 Y55.07 E1.20413
G1 X137.275 Y55.07 E.01676
G1 X164.93 Y82.725 E1.22784
G1 X164.93 Y83.259 E.01676
M73 P6 R33
M73 Q6 S33
G1 X136.741 Y55.07 E1.25154
G1 X136.207 Y55.07 E.01676
G1 X164.93 Y83.793 E1.27525
G1 X164.93 Y84.327 E.01676
G1 X135.673 Y55.07 E1.29895
G1 X135.139 Y55.07 E.01676
G1 X164.93 Y84.861 E1.32266
G1 X164.93 Y85.395 E.01676
G1 X134.605 Y55.07 E1.34637
G1 X134.071 Y55.07 E.01676
G1 X164.93 Y85.929 E1.37007
G1 X164.93 Y86.463 E.01676
G1 X133.537 Y55.07 E1.39378
G1 X133.003 Y55.07 E.01676
G1 X164.93 Y86.997 E1.41748
G1 X164.93 Y87.531 E.01676
G1 X132.469 Y55.07 E1.44119
G1 X131.935 Y55.07 E.01676
G1 X164.93 Y88.065 E1.4649
G1 X164.93 Y88.599 E.01676
M73 P7 R32
M73 Q7 S33
G1 X131.401 Y55.07 E1.4886
G1 X130.868 Y55.07 E.01676
M73 Q7 S32
G1 X164.93 Y89.132 E1.51231
G1 X164.93 Y89.666 E.01676
G1 X130.334 Y55.07 E1.53602
G1 X129.8 Y55.07 E.01676
G1 X164.93 Y90.2 E1.55972
G1 X164.93 Y90.734 E.01676
G1 X129.266 Y55.07 E1.58343
G1 X128.732 Y55.07 E.01676
G1 X164.93 Y91.268 E1.60713
G1 X164.93 Y91.802 E.01676
G1 X128.198 Y55.07 E1.63084
G1 X127.664 Y55.07 E.01676
G1 X164.93 Y92.336 E1.65455
G1 X164.93 Y92.87 E.01676
M73 P8 R32
M73 Q8 S32
G1 X127.13 Y55.07 E1.67825
G1 X126.596 Y55.07 E.01676
G1 X164.93 Y93.404 E1.70196
G1 X164.93 Y93.938 E.01676
G1 X126.062 Y55.07 E1.72567
G1 X125.528 Y55.07 E.01676
G1 X164.93 Y94.472 E1.74937
G1 X164.93 Y95.006 E.01676
G1 X124.994 Y55.07 E1.77308
G1 X124.46 Y55.07 E.01676
G1 X164.93 Y95.54 E1.79678
G1 X164.93 Y96.074 E.01676
G1 X123.926 Y55.07 E1.82049
G1 X123.392 Y55.07 E.01676
G1 X164.93 Y96.608 E1.8442
G1 X164.93 Y97.142 E.01676
M73 P9 R32
M73 Q9 S32
G1 X122.858 Y55.07 E1.8679
G1 X122.324 Y55.07 E.01676
G1 X164.93 Y97.676 E1.89161
G1 X164.93 Y98.21 E.01676
G1 X121.79 Y55.07 E1.91531
G1 X121.256 Y55.07 E.01676
G1 X164.93 Y98.744 E1.93902
G1 X164.93 Y99.277 E.01676
G1 X120.723 Y55.07 E1.96273
G1 X120.189 Y55.07 E.01676
M73 P9 R31
G1 X164.93 Y99.811 E1.98643
G1 X164.93 Y100.345 E.01676
M73 Q9 S31
G1 X119.655 Y55.07 E2.01014
G1 X119.121 Y55.07 E.01676
M73 P10 R31
M73 Q10 S31
G1 X164.93 Y100.879 E2.03385
G1 X164.93 Y101.413 E.01676
G1 X118.587 Y55.07 E2.05755
G1 X118.053 Y55.07 E.01676
G1 X164.93 Y101.947 E2.08126
G1 X164.93 Y102.481 E.01676
G1 X117.519 Y55.07 E2.10496
G1 X116.985 Y55.07 E.01676
G1 X164.93 Y103.015 E2.12867
G1 X164.93 Y103.549 E.01676
G1 X116.451 Y55.07 E2.15238
G1 X115.917 Y55.07 E.01676
M73 P11 R31
M73 Q11 S31
G1 X164.93 Y104.083 E2.17608
G1 X164.93 Y104.617 E.01676
G1 X115.383 Y55.07 E2.19979
G1 X114.849 Y55.07 E.01676
G1 X164.93 Y105.151 E2.22349
G1 X164.93 Y105.685 E.01676
G1 X114.315 Y55.07 E2.2472
G1 X113.781 Y55.07 E.01676
G1 X164.93 Y106.219 E2.27091
G1 X164.93 Y106.753 E.01676
G1 X113.247 Y55.07 E2.29461
G1 X112.713 Y55.07 E.01676
M73 P12 R31
M73 Q12 S31
G1 X164.93 Y107.287 E2.31832
G1 X164.93 Y107.821 E.01676
G1 X112.179 Y55.07 E2.34203
G1 X111.645 Y55.07 E.01676
G1 X164.93 Y108.355 E2.36573
G1 X164.93 Y108.889 E.01676
G1 X111.111 Y55.07 E2.38944
G1 X110.577 Y55.07 E.01676
M73 P12 R30
M73 Q12 S30
G1 X164.93 Y109.423 E2.41314
G1 X164.93 Y109.956 E.01676
G1 X110.044 Y55.07 E2.43685
G1 X109.51 Y55.07 E.01676
M73 P13 R30
M73 Q13 S30
G1 X164.93 Y110.49 E2.46056
G1 X164.93 Y111.024 E.01676
G1 X108.976 Y55.07 E2.48426
G1 X108.442 Y55.07 E.01676
G1 X164.93 Y111.558 E2.50797
G1 X164.93 Y112.092 E.01676
G1 X107.908 Y55.07 E2.53168
G1 X107.374 Y55.07 E.01676
G1 X164.93 Y112.626 E2.55538
G1 X164.93 Y113.16 E.01676
M73 P14 R30
M73 Q14 S30
G1 X106.84 Y55.07 E2.57909
G1 X106.306 Y55.07 E.01676
G1 X164.93 Y113.694 E2.60279
G1 X164.93 Y114.228 E.01676
G1 X105.772 Y55.07 E2.6265
G1 X105.238 Y55.07 E.01676
G1 X164.93 Y114.762 E2.65021
G1 X164.93 Y115.296 E.01676
G1 X104.704 Y55.07 E2.67391
G1 X104.17 Y55.07 E.01676
M73 P15 R30
M73 Q15 S30
G1 X164.93 Y115.83 E2.69762
G1 X164.93 Y116.364 E.01676
G1 X103.636 Y55.07 E2.72132
G1 X103.102 Y55.07 E.01676
